src/assets/icons/letters,fancy,serif-l.svg

<svg width="48" height="48" viewBox="0 0 48 48" fill="none" xmlns="http://www.w3.org/2000/svg">
<path d="M37.1692 37H10.9872V35.48C11.8232 35.4547 12.5072 35.3787 13.0392 35.252C13.5712 35.1253 13.9766 34.91 14.2552 34.606C14.5339 34.302 14.7239 33.8713 14.8252 33.314C14.9266 32.7567 14.9772 32.0347 14.9772 31.148V13.592C14.9772 12.7053 14.9266 11.996 14.8252 11.464C14.7492 10.9067 14.5846 10.476 14.3312 10.172C14.0779 9.84267 13.7106 9.62733 13.2292 9.526C12.7732 9.39933 12.1652 9.31067 11.4052 9.26V7.74H24.5152V9.26C23.6539 9.28533 22.9572 9.36133 22.4252 9.488C21.9186 9.61467 21.5259 9.84267 21.2472 10.172C20.9686 10.5013 20.7786 10.9573 20.6772 11.54C20.6012 12.1227 20.5632 12.8953 20.5632 13.858V29.78C20.5632 30.844 20.6646 31.718 20.8672 32.402C21.0952 33.0607 21.4752 33.58 22.0072 33.96C22.5392 34.3147 23.2486 34.568 24.1352 34.72C25.0219 34.8467 26.1239 34.91 27.4412 34.91C28.9106 34.91 30.1392 34.8213 31.1272 34.644C32.1152 34.4667 32.9386 34.1373 33.5972 33.656C34.2812 33.1493 34.8259 32.478 35.2312 31.642C35.6366 30.806 35.9786 29.7167 36.2572 28.374H37.7772L37.1692 37Z" fill="black"/>
</svg>

<svg xmlns="http://www.w3.org/2000/svg" width="48" height="48" fill="none" viewBox="0 0 48 48">
  <path fill="#000" d="M37.17 37H10.986v-1.52c.836-.025 1.52-.101 2.052-.228s.938-.342 1.216-.646c.279-.304.469-.735.57-1.292.102-.557.152-1.28.152-2.166V13.592c0-.887-.05-1.596-.152-2.128-.076-.557-.24-.988-.494-1.292-.253-.33-.62-.545-1.102-.646-.456-.127-1.064-.215-1.824-.266V7.74h13.11v1.52c-.861.025-1.558.101-2.09.228-.506.127-.9.355-1.178.684-.278.33-.468.785-.57 1.368-.076.583-.114 1.355-.114 2.318V29.78c0 1.064.102 1.938.304 2.622.228.659.608 1.178 1.14 1.558.532.355 1.242.608 2.128.76.887.127 1.989.19 3.306.19 1.47 0 2.698-.089 3.686-.266.988-.177 1.812-.507 2.47-.988.684-.507 1.229-1.178 1.634-2.014.406-.836.748-1.925 1.026-3.268h1.52L37.17 37z"/>
</svg>
